svg/FoundationIcons/fi-social-facebook.svg

<svg xmlns="http://www.w3.org/2000/svg" viewBox="0 0 100 100" enable-background="new 0 0 100 100"><path d="m82.03 14h-64.05c-2.195 0-3.974 1.779-3.974 3.974v64.05c0 2.194 1.779 3.973 3.974 3.973h34.483v-27.882h-9.383v-10.866h9.383v-8.01c0-9.3 5.68-14.363 13.976-14.363 3.974 0 7.389.295 8.385.428v9.719l-5.754.003c-4.512 0-5.385 2.144-5.385 5.29v6.938h10.76l-1.401 10.866h-9.359v27.881h18.348c2.194 0 3.973-1.779 3.973-3.974v-64.05c0-2.195-1.779-3.974-3.974-3.974"/></svg>

<?xml version="1.0" encoding="utf-8"?>
<!-- Generator: Adobe Illustrator 17.0.0, SVG Export Plug-In . SVG Version: 6.00 Build 0)  -->
<!DOCTYPE svg PUBLIC "-//W3C//DTD SVG 1.1//EN" "http://www.w3.org/Graphics/SVG/1.1/DTD/svg11.dtd">
<svg version="1.1" id="Layer_1" xmlns="http://www.w3.org/2000/svg" xmlns:xlink="http://www.w3.org/1999/xlink" x="0px" y="0px"
	 width="100px" height="100px" viewBox="0 0 100 100" enable-background="new 0 0 100 100" xml:space="preserve">
<g id="White_1_">
	<path d="M82.026,14H17.974C15.779,14,14,15.779,14,17.974v64.053C14,84.221,15.779,86,17.974,86h34.483V58.118h-9.383V47.252h9.383
		v-8.014c0-9.3,5.68-14.363,13.976-14.363c3.974,0,7.389,0.295,8.385,0.428v9.719l-5.754,0.003c-4.512,0-5.385,2.144-5.385,5.29
		v6.938h10.76l-1.401,10.866h-9.359V86h18.348C84.221,86,86,84.221,86,82.026V17.974C86,15.779,84.221,14,82.026,14z"/>
</g>
</svg>
